communes/956.svg

<?xml version="1.0" encoding="UTF-8" standalone="no"?>
<svg
   xmlns:dc="http://purl.org/dc/elements/1.1/"
   xmlns:cc="http://web.resource.org/cc/"
   xmlns:rdf="http://www.w3.org/1999/02/22-rdf-syntax-ns#"
   xmlns:svg="http://www.w3.org/2000/svg"
   xmlns="http://www.w3.org/2000/svg"
   xmlns:xlink="http://www.w3.org/1999/xlink"
   xmlns:sodipodi="http://sodipodi.sourceforge.net/DTD/sodipodi-0.dtd"
   xmlns:inkscape="http://www.inkscape.org/namespaces/inkscape"
   height="763"
   width="603"
   version="1.0"
   id="svg20"
   sodipodi:version="0.32"
   inkscape:version="0.44.1"
   sodipodi:docname="Rüegsau-coat of arms.svg"
   sodipodi:docbase="F:\Mis Documentos\Mis imágenes\Encyclopédie\Escudos de Suiza">
  <metadata
     id="metadata31">
    <rdf:RDF>
      <cc:Work
         rdf:about="">
        <dc:format>image/svg+xml</dc:format>
        <dc:type
           rdf:resource="http://purl.org/dc/dcmitype/StillImage" />
        <dc:date>07-AUG-2006</dc:date>
        <dc:creator>
          <cc:Agent>
            <dc:title>Jérôme BLUM (wagner51)</dc:title>
          </cc:Agent>
        </dc:creator>
        <cc:license
           rdf:resource="http://creativecommons.org/licenses/GPL/2.0/" />
        <dc:coverage />
        <dc:description>Gabarit pour le Projet:Blasons de WIkipédia</dc:description>
        <dc:subject>
          <rdf:Bag>
            <rdf:li>blason suisse modèle gabarit projet blasons</rdf:li>
          </rdf:Bag>
        </dc:subject>
        <dc:language>fr</dc:language>
        <dc:title>Gabrit d'un blason suisse</dc:title>
      </cc:Work>
      <cc:License
         rdf:about="http://creativecommons.org/licenses/GPL/2.0/">
        <cc:permits
           rdf:resource="http://web.resource.org/cc/Reproduction" />
        <cc:permits
           rdf:resource="http://web.resource.org/cc/Distribution" />
        <cc:requires
           rdf:resource="http://web.resource.org/cc/Notice" />
        <cc:permits
           rdf:resource="http://web.resource.org/cc/DerivativeWorks" />
        <cc:requires
           rdf:resource="http://web.resource.org/cc/ShareAlike" />
        <cc:requires
           rdf:resource="http://web.resource.org/cc/SourceCode" />
      </cc:License>
    </rdf:RDF>
  </metadata>
  <defs
     id="defs29">
    <linearGradient
       id="linearGradient2893">
      <stop
         style="stop-color:#ffffff;stop-opacity:0.3137255;"
         offset="0"
         id="stop2895" />
      <stop
         id="stop2897"
         offset="0.19"
         style="stop-color:#ffffff;stop-opacity:0.25098041;" />
      <stop
         style="stop-color:#6b6b6b;stop-opacity:0.1254902;"
         offset="0.60000002"
         id="stop2901" />
      <stop
         style="stop-color:#000000;stop-opacity:0.1254902;"
         offset="1"
         id="stop2899" />
    </linearGradient>
    <linearGradient
       id="linearGradient2955">
      <stop
         style="stop-color:white;stop-opacity:0;"
         offset="0"
         id="stop2965" />
      <stop
         style="stop-color:black;stop-opacity:0.64583331;"
         offset="1"
         id="stop2959" />
    </linearGradient>
    <radialGradient
       inkscape:collect="always"
       xlink:href="#linearGradient2893"
       id="radialGradient3236"
       gradientUnits="userSpaceOnUse"
       gradientTransform="matrix(1.215027,1.531577e-24,1.464684e-23,1.266667,-839.1924,-490.4894)"
       cx="858.04236"
       cy="579.93323"
       fx="858.04236"
       fy="579.93323"
       r="300" />
  </defs>
  <sodipodi:namedview
     inkscape:window-height="682"
     inkscape:window-width="1024"
     inkscape:pageshadow="2"
     inkscape:pageopacity="0.0"
     guidetolerance="10.0"
     gridtolerance="10.0"
     objecttolerance="10.0"
     borderopacity="1.0"
     bordercolor="#666666"
     pagecolor="#ffffff"
     id="base"
     inkscape:zoom="0.48301887"
     inkscape:cx="442.50223"
     inkscape:cy="409.51467"
     inkscape:window-x="-4"
     inkscape:window-y="-4"
     inkscape:current-layer="layer2"
     showgrid="true" />
  <desc
     id="desc22">Coat of Arms of Canton of Freiburg (Fribourg)</desc>
  <g
     inkscape:groupmode="layer"
     id="layer1"
     inkscape:label="Fond écu"
     sodipodi:insensitive="true">
    <path
       id="path1899"
       d="M 1.5,1.49998 L 1.5,460.3679 C 1.5,626.6785 135.81456,761.5 301.49999,761.5 C 467.18543,761.5 601.5,626.6785 601.5,460.3679 L 601.5,1.49998 L 1.5,1.49998 z "
       style="fill:#e20909;fill-opacity:1" />
  </g>
  <g
     inkscape:groupmode="layer"
     id="layer2"
     inkscape:label="Meubles"
     sodipodi:insensitive="true">
    <path
       style="fill:white;fill-opacity:1;fill-rule:evenodd;stroke:black;stroke-width:3.0153234;stroke-linecap:butt;stroke-linejoin:miter;stroke-miterlimit:4;stroke-dasharray:none;stroke-opacity:1"
       d="M 63.682979,46.658066 L 246.69742,46.658066 C 211.17396,63.251588 191.4797,74.641599 193.02685,109.87386 L 193.88914,176.48919 L 224.01125,175.73835 C 257.50651,170.00669 264.91527,148.3988 278.49234,128.72435 L 278.29023,298.17833 C 264.73058,278.64609 256.47518,255.39924 227.60096,251.97643 L 193.64199,251.28892 L 191.93468,546.03568 C 194.04746,577.48432 208.39502,604.17503 248.5443,620.8317 L 61.836097,620.8317 C 90.891466,607.84022 114.61967,590.58712 113.32696,544.57744 L 114.30684,251.18315 L 73.83609,250.39392 C 53.604704,249.78172 33.069844,274.75783 21.507662,299.66271 L 22.112994,124.51209 C 29.286306,150.51446 59.984135,176.757 74.399159,177.03466 L 114.54996,177.06081 L 115.1063,111.15957 C 117.27839,63.322865 86.148896,60.752944 63.682979,46.658066 z "
       id="path5547"
       sodipodi:nodetypes="ccccccccccccccccccccc" />
    <path
       style="fill:white;fill-opacity:1;stroke:black;stroke-width:2.63619781;stroke-miterlimit:4;stroke-dasharray:none;stroke-opacity:1"
       d="M 301.3125,1.5 L 301.3125,761.5 C 301.37511,761.50004 301.43738,761.5 301.5,761.5 C 467.18546,761.5 601.5,626.6856 601.5,460.375 L 601.5,1.5 L 301.3125,1.5 z "
       id="rect7321" />
    <path
       style="fill:#2b5df2;fill-opacity:1;fill-rule:evenodd;stroke:black;stroke-width:3;stroke-linecap:butt;stroke-linejoin:miter;stroke-miterlimit:4;stroke-dasharray:none;stroke-opacity:1"
       d="M 399.71875,2.4375 L 302.0625,2.78125 L 302.0625,126.5 C 323.6213,141.43569 344.60059,148.03689 338.71875,211.78125 C 333.12059,272.98644 355.14485,281.8288 385.15625,318.9375 C 414.74841,355.52778 384.96775,403.24861 398.625,435.875 C 416.08269,477.58037 447.38297,490.78991 454.75,514.46875 C 471.82357,569.34608 417.6086,624.86979 508.75,678.0625 C 547.36936,641.00577 576.15348,593.70543 590.75,540.5 C 560.2958,500.95336 582.33619,469.09314 568.09375,443.375 C 548.7942,408.52508 526.88048,411.84329 513.125,377.8125 C 497.85312,340.03023 517.55495,297.21944 505.375,267.3125 C 490.42103,230.59415 455.87528,216.78059 452.53125,186.4375 C 447.13994,137.5179 468.03769,123.93813 452.09375,93.1875 C 429.51438,49.63929 392.59759,32.695846 399.71875,2.4375 z "
       id="path6434" />
  </g>
  <g
     inkscape:groupmode="layer"
     id="layer3"
     inkscape:label="Reflet final"
     style="display:inline"
     sodipodi:insensitive="true">
    <path
       style="fill:url(#radialGradient3236);fill-opacity:1"
       d="M 1.5,1.5 L 1.5,460.3679 C 1.5,626.67854 135.81454,761.5 301.49993,761.5 C 467.1854,761.5 601.5,626.67854 601.5,460.3679 L 601.5,1.5 L 1.5,1.5 z "
       id="path2346" />
  </g>
  <g
     inkscape:groupmode="layer"
     id="layer4"
     inkscape:label="Contour final"
     style="display:inline"
     sodipodi:insensitive="true">
    <path
       style="fill:none;fill-opacity:1;stroke:black;stroke-width:3;stroke-miterlimit:4;stroke-dasharray:none;stroke-opacity:1"
       d="M 1.5,1.5 L 1.5,460.36794 C 1.5,626.67854 135.81454,761.5 301.49993,761.5 C 467.1854,761.5 601.5,626.67854 601.5,460.36794 L 601.5,1.5 L 1.5,1.5 z "
       id="path3239" />
  </g>
</svg>

<?xml version="1.0" encoding="UTF-8"?>
<svg version="1.0" viewBox="0 0 603 763" xmlns="http://www.w3.org/2000/svg" xmlns:cc="http://web.resource.org/cc/" xmlns:dc="http://purl.org/dc/elements/1.1/" xmlns:rdf="http://www.w3.org/1999/02/22-rdf-syntax-ns#" xmlns:xlink="http://www.w3.org/1999/xlink">
<metadata>
<rdf:RDF>
<cc:Work rdf:about="">
<dc:format>image/svg+xml</dc:format>
<dc:type rdf:resource="http://purl.org/dc/dcmitype/StillImage"/>
<dc:date>07-AUG-2006</dc:date>
<dc:creator>
<cc:Agent>
<dc:title>Jérôme BLUM (wagner51)</dc:title>
</cc:Agent>
</dc:creator>
<cc:license rdf:resource="http://creativecommons.org/licenses/GPL/2.0/"/>
<dc:coverage/>
<dc:description>Gabarit pour le Projet:Blasons de WIkipédia</dc:description>
<dc:subject>
<rdf:Bag>
<rdf:li>blason suisse modèle gabarit projet blasons</rdf:li>
</rdf:Bag>
</dc:subject>
<dc:language>fr</dc:language>
<dc:title>Gabrit d'un blason suisse</dc:title>
</cc:Work>
<cc:License rdf:about="http://creativecommons.org/licenses/GPL/2.0/">
<cc:permits rdf:resource="http://web.resource.org/cc/Reproduction"/>
<cc:permits rdf:resource="http://web.resource.org/cc/Distribution"/>
<cc:requires rdf:resource="http://web.resource.org/cc/Notice"/>
<cc:permits rdf:resource="http://web.resource.org/cc/DerivativeWorks"/>
<cc:requires rdf:resource="http://web.resource.org/cc/ShareAlike"/>
<cc:requires rdf:resource="http://web.resource.org/cc/SourceCode"/>
</cc:License>
</rdf:RDF>
</metadata>
<defs>
<radialGradient id="a" cx="858.04" cy="579.93" r="300" gradientTransform="matrix(1.215 1.5316e-24 1.4647e-23 1.2667 -839.19 -490.49)" gradientUnits="userSpaceOnUse">
<stop stop-color="#fff" stop-opacity=".31373" offset="0"/>
<stop stop-color="#fff" stop-opacity=".25098" offset=".19"/>
<stop stop-color="#6b6b6b" stop-opacity=".12549" offset=".6"/>
<stop stop-opacity=".12549" offset="1"/>
</radialGradient>
</defs>
<desc>Coat of Arms of Canton of Freiburg (Fribourg)</desc>
<path d="m1.5 1.5v458.87c0 166.31 134.31 301.13 300 301.13 165.69 0 300-134.82 300-301.13v-458.87h-600z" fill="#e20909"/>
<g stroke="#000">
<path d="m63.683 46.658h183.01c-35.523 16.594-55.218 27.984-53.671 63.216l0.86229 66.615 30.122-0.75084c33.495-5.7317 40.904-27.34 54.481-47.014l-0.20211 169.45c-13.56-19.532-21.815-42.779-50.689-46.202l-33.959-0.68751-1.7073 294.75c2.1128 31.449 16.46 58.139 56.61 74.796h-186.71c29.055-12.991 52.784-30.245 51.491-76.254l0.97988-293.39-40.471-0.78923c-20.231-0.6122-40.766 24.364-52.328 49.269l0.60533-175.15c7.1733 26.002 37.871 52.245 52.286 52.523l40.151 0.02615 0.55634-65.901c2.1721-47.837-28.957-50.407-51.423-64.502z" fill="#fff" fill-rule="evenodd" stroke-width="3.0153"/>
<path d="m301.31 1.5v760c0.06261 4e-5 0.12488 0 0.1875 0 165.69 0 300-134.81 300-301.12v-458.88h-300.19z" fill="#fff" stroke-width="2.6362"/>
<path d="m399.72 2.4375-97.656 0.34375v123.72c21.559 14.936 42.538 21.537 36.656 85.281-5.5982 61.205 16.426 70.048 46.438 107.16 29.592 36.59-0.1885 84.311 13.469 116.94 17.458 41.705 48.758 54.915 56.125 78.594 17.074 54.877-37.141 110.4 54 163.59 38.619-37.057 67.403-84.357 82-137.56-30.454-39.547-8.4138-71.407-22.656-97.125-19.3-34.85-41.213-31.532-54.969-65.562-15.272-37.782 4.43-80.593-7.75-110.5-14.954-36.718-49.5-50.532-52.844-80.875-5.3913-48.92 15.506-62.499-0.4375-93.25-22.579-43.548-59.496-60.492-52.375-90.75z" fill="#2b5df2" fill-rule="evenodd" stroke-width="3"/>
</g>
<g>
<path d="m1.5 1.5v458.87c0 166.31 134.31 301.13 300 301.13 165.69 0 300-134.82 300-301.13v-458.87h-600z" fill="url(#a)"/>
<path d="m1.5 1.5v458.87c0 166.31 134.31 301.13 300 301.13 165.69 0 300-134.82 300-301.13v-458.87h-600z" fill="none" stroke="#000" stroke-width="3"/>
</g>
</svg>
